X: 3462
T: Polska efter Frid-Daniel
O: Hälsingland, Fiskvik, Bergsjö
S: efter Daniel Frid Johansson
R: Polska
Z: Håkan Lidén, 2015-06-19
M: 3/4
L: 1/8
K: D
|: {ABc} d2 (D>F) Ad | (c/B/)A/^G/ (A/B/)c/d/ ef | gb/g/ eg/e/ c(e/c/) | df/d/ Ad/A/ FA |
d2 (D>F) Ad | (c/B/)A/^G/ (A/B/)c/d/ ef | gb/g/ eg/e/ c(e/c/) | d2 d4 :|
|: a>f ad' f2 | fe/d/ ef g2 | gb/g/ fa/f/ (ge) | (A/c/)e/c/ (dA) FA |
a>f ad' f2 | fe/d/ ef g2 | gb/g/ fa/f/ (ge) | (A/c/)e/c/ d4 :|]
(:musicend:)
(:music:)
